X:153
T:Rose Tree
M:4/4
L:1/4
K:D
f/2e/2|dBA F/2G/2|A/2B/2 A/2F/2 AA|d c/2d/2 "^"e d/2e/2|fe e/2g/2 f/2e/2
|
dBA F/2G/2|A/2B/2A/2F/2 AA|d c/2d/2 e d/2e/2|fdd:|:e|
f3/2e/2fg|a2gf|ebb3/2a/2|bee/2g/2 f/2e/2|
dBAF/2G/2|A/2B/2 A/2F/2AA|d c/2d/2 ed/2e/2|fdd:|
